X:5105
T:Picking up Sticks
T:to the tune of Lavena
O:england
M:6/8
L:1/8
Q:120
B:The Round Band Book of Playford
K:F
d | "Dm"d2d "A7"^c>=Bc | "Dm"d2d A2A | \
"Bb"d2d "A7"^c>=Bc |"Dm"d3 A2_B | \
"Gm"B>dc "C7"B>cB | "F"A>BA "C"G>FE | \
"Dm"F>GA "Gm"G>AF | "Am"E3 "Dm"D2 :|


